packages/core/src/svgs/tokens/branded/GYEN.svg

<svg width="24" height="24" viewBox="0 0 24 24" fill="none" xmlns="http://www.w3.org/2000/svg">
<path d="M22 12.0001C22 15.315 17.525 18 11.9999 18C6.47499 18 2 15.315 2 12.0001C2 8.68506 6.47499 6.00006 11.9999 6.00006C15.7 6.00006 18.9349 7.20506 20.66 9.00006H16.575C15.475 8.08006 13.835 7.50006 11.9999 7.50006C8.68499 7.50006 5.99999 9.40006 5.99999 11.75C5.99999 14.1001 8.68499 16.0001 11.9999 16.0001C14.6999 16.0001 16.985 14.7351 17.735 13H11.985C11.4399 13 11 12.55 11 12.0001C11 11.4501 11.4399 11 11.99 11H21.86C21.955 11.325 22 11.6601 22 12.0001Z" fill="#005BAC"/>
</svg>

<svg xmlns="http://www.w3.org/2000/svg" width="24" height="24" fill="none" viewBox="0 0 24 24">
    <path fill="#005BAC" d="M22 12c0 3.315-4.475 6-10 6S2 15.315 2 12s4.475-6 10-6c3.7 0 6.935 1.205 8.66 3h-4.085c-1.1-.92-2.74-1.5-4.575-1.5-3.315 0-6 1.9-6 4.25S8.685 16 12 16c2.7 0 4.985-1.265 5.735-3h-5.75A.993.993 0 0 1 11 12c0-.55.44-1 .99-1h9.87q.141.489.14 1"/>
</svg>
